!!!OTL: Den Em Steffen, S. 29
!!!id: L0021a
**kern
*clefG2
*k[b-]
*F:
{16c
16c
=1
8f
16f
16f
8a
8f
=2
8cc
8cc
8cc}
=3
{8ff
=4
8cc
16a
16a
8b-
16g
16g
=5
8a
8f
8f}
=6
{16a
16a
=7
16g
16g
16g
16g
8g
16b-
16b-
=8
16a
16f
16f
16f
8f}
=9
{8ff
=10
8cc
16a
16a
8b-
16g
16g
=11
8a
8g
8f}
==
*-
!!!minrhy: 16
!!!meters: 2/4 ]  ZZ[4
!!!cut: Den Em Steffen, S. 29
!!!reg: Luxemburg
!!!trd: Die Luxemburger Volkslieder &auml;lterer Zeit, Luxemburg 1904 posth.
!!!rhy1: XX  X_XXX_X_  X_X_X_
!!!rhy2: X_  X_XXX_XX  X_X_X_
!!!key: L0021a 16  F 2/4 ]  ZZ[4
!!!mod: PENTATONIK DUR ?]  AMBITUS[11
!!!kad: 5111
!!!akz: 15_53_23_53_
!!!fot: 'a__b__c__bv_
!!!for: 'a__b__c__b__
!!!fok: '/__\__\__\__
!! PHRAS[AUFTAKTIG]
!!!fkt: ??, Liebeslied
!! NEYENS
!! PR[42] 2K[5] 2G[5] 3K[5] 3G[0] 4A[5] 4Ü[0] 5A[2] 6K[2] 6G[0]
!! 7K[0] 7G[0] 8A[0] MEHR[0] SI[23] ABS[43] SR[9] SP[14]
!! ST[12] 2k[9] 2g[14] 3k[9] 3g[2] 4d[0] 4ü[0] 5d[0] 6k[0] 6g[0]
!! 7k[0] 7g[0] 8d[0] mehr[0] si[35] dm[-12] sr[23] sp[12]
!! 1F[9] 2F[77] 3F[14] 4F[0] LF[0] 2P[0] 3P[0] 4P[0] TRI[0] DF[3] AB[44]
!! TF[0] U3K[0] U3[0] U4[0] U4Ü[0] U5[7] U6K[0] U6[7] U7K[0] U7[7]
!! N1[30] N2K[0] N2[20] N3K[0] N3[20] N4[7] N4Ü[0] N5[2] N6K[0] N6[0]
!!!n7k: 0] N7[0] O1[0] O2K[0] O2[0] O3K[0] O3[0] HÖ[0
!!!RNB: symbol: &auml;      = a umlaut  (UTF-8: Å„)
